images/icons/youtube.svg

<svg fill="none" height="24" viewBox="0 0 24 24" width="24" xmlns="http://www.w3.org/2000/svg"><path d="m23.4982 6.15419c-.2755-1.04467-1.0896-1.86725-2.1218-2.14693-1.8709-.50726-9.3764-.50726-9.3764-.50726s-7.50545 0-9.37636.50726c-1.03228.27968-1.846367 1.10226-2.121822 2.14693-.501818 1.89468-.501818 5.84581-.501818 5.84581s0 3.9511.501818 5.8458c.275455 1.0447 1.089542 1.8673 2.121822 2.1469 1.87091.5073 9.37636.5073 9.37636.5073s7.5055 0 9.3764-.5073c1.0322-.2796 1.8463-1.1022 2.1218-2.1469.5018-1.8947.5018-5.8458.5018-5.8458s0-3.95113-.5018-5.84581z" fill="#f00"/><path d="m9.54541 15.5878 6.27269-3.5879-6.27269-3.58779z" fill="#fff"/></svg>

<svg width="24" height="24" viewBox="0 0 24 24" fill="none" xmlns="http://www.w3.org/2000/svg">
<path d="M23.4982 6.15419C23.2227 5.10952 22.4086 4.28694 21.3764 4.00726C19.5055 3.5 12 3.5 12 3.5C12 3.5 4.49455 3.5 2.62364 4.00726C1.59136 4.28694 0.777273 5.10952 0.501818 6.15419C0 8.04887 0 12 0 12C0 12 0 15.9511 0.501818 17.8458C0.777273 18.8905 1.59136 19.7131 2.62364 19.9927C4.49455 20.5 12 20.5 12 20.5C12 20.5 19.5055 20.5 21.3764 19.9927C22.4086 19.7131 23.2227 18.8905 23.4982 17.8458C24 15.9511 24 12 24 12C24 12 24 8.04887 23.4982 6.15419Z" fill="#FF0000"/>
<path d="M9.54541 15.5878L15.8181 11.9999L9.54541 8.41211V15.5878Z" fill="white"/>
</svg>
